X: 1959
T: Yandı Bu Gönül
C: Ali Rızâ Şengel (Eyyûbî)
O: Turkey
F: http://compmusic.upf.edu/node/140
N: suzinak--ilahi--cifteduyek--yandi_bu--ali_riza_sengel
N: makam= suzinak
N: form= ilahi
N: usul= cifteduyek = 16/4
M: 16/4
L: 1/16
K: C _1/4B _7/8e ^f 
Q: 1/4=63
%%MIDI tuningsystem comma53
c3 d d e f g f e d c g4  | f e d c B c d =e d c B ^A B2 z2  | 
w:  Yan *  dı  *  *  *  bu  *  gö *  nül   |  şem_ *  *  *  i  *  fü *  rû  | 
c {e}d c2 B2 c d e d e g f e2 d  | \
w:  zân_ *  *  *  ı  Â *  lî  | 
f g/a/ g f f e {f}e d d6 z2  | 
w:  den    | 
c3 d d e f g f e d c g4  | f e d c B c d =e d c B ^A B2 z2  | 
w:  Yan *  dı  *  *  *  bu  *  gö *  nül   |  şem_ *  *  *  i  *  fü *  rû  | 
c {e}d c2 B2 c d e d e g f e2 d  | \
w:  zân_ *  *  *  ı  Â *  lî  | 
f g/a/ g f f e {f}e d d6 z2  | 
w:  den    | 
c d e f g/a/ g/f/ g a _b a g f g4  | \
w:  Mest  *  *  *  ol *  *  *  *  *  du  *  di *  lim   | 
g/f/ g/a/ g f f e {f}e d d3 g f e d c  | 
w:  bûy_ *  *  *  *  *  i  *  *  gü *  lis  | 
z B2 e d2 c2 c B2 G _7/8A G A B  | \
w:  tân_ *  ı  Â lî  | 
_7/8A3/2G/ F G F G A G G4 d2 z2  | 
w:  den  *  *  *  *  *  *  *  *  ah    | 
c d e f g/a/ g/f/ g a _b a g f g4  | \
w:  Mest  *  *  *  ol *  *  *  *  *  du  *  di *  lim   | 
g/f/ g/a/ g f f e {f}e d d3 g f e d c  | 
w:  bûy_ *  *  *  *  *  i  *  *  gü *  lis  | 
z B2 e d2 c2 c B2 G _7/8A G A B  | \
w:  tân_ *  ı  Â lî  | 
_7/8A3/2G/ F G F G A G G4 d2 z2  | 
w:  den  *  *  *  *  *  *  *  *  ah    | 
c3 d d4 e3/2d/ c B c2 g2  | g/=f/ g/a/ g f f2 (3ede f3 g g f2 e  | 
w:  En *  vâr_ ı  *  rûh_ *  i   |  aks_ *  *  *  *  *  i  Hü *  *  dâ  | 
z a g f f e {f}e d e d e g f e2 d  | \
w:  dır  *  *  ki  *  *  gö *  rün  | 
f g/a/ g f f e {f}e d d4 z4  | 
w:  dü    | 
c3 d d4 e3/2d/ c B c2 g2  | g/=f/ g/a/ g f f2 (3ede f3 g g f2 e  | 
w:  En *  vâr_ ı  *  rûh_ *  i   |  aks_ *  *  *  *  *  i  Hü *  *  dâ  | 
z a g f f e {f}e d e d e g f e2 d  | \
w:  dır  *  *  ki  *  *  gö *  rün  | 
f g/a/ g f f e {f}e d d4 z4  | 
w:  dü    | 
c d e f g/a/ g/f/ g a _b a g f g4  | \
w:  Mest  *  *  *  ol *  *  *  *  *  du  *  di *  lim   | 
g/f/ g/a/ g f f e {f}e d d3 g f e d c  | 
w:  bûy_ *  *  *  *  *  i  *  *  gü *  lis  | 
z B2 e d2 c2 c B2 G _7/8A G A B  | \
w:  tân_ *  ı  Â lî  | 
_7/8A3/2G/ F G F G A G G4 |
w:  den   | 


